!!!!SEGMENT: pl-kk--kk-i-3--038_anonim--alleluia-haec-dies.krn
!!!cenid: 15xx:647
!!!COM: Anonim
!!!COM-rismID: pe30004985
!!!CDT:
!!!CNT:
!!!OTL: Alleluia, Haec dies
!!!PDT:
!!!AGN:
!!!SMS-siglum: PL-Kk
!!!SMS-shelfmark: Kk.I.3
!!!SMS-shelfwork: 038 W
!!!SMS-variant:
!!!SMS-altvar:
!!!NIFC-rismSourceID: 1001145493
!!!NIFC-rismChildID: 1001145493
!!!NIFC-islandoraID: pl-kk:1170
!!!URL-pdf-islandora: https://repozytorium.nifc.pl/islandora/object/pl-kk%3A1170/datastream/PDF/view
!!!URL-scan: https://polish.musicsources.pl/pl/lokalizacje/galeria/rekopisy/5919 @EN{Scan on Polish Music Sources Website} @PL{Skany w portalu Dziedzictwo Muzyki Polskiej w otwartym dostępie}
!!!ONB-nifc: UWAGA: Discantus (s. 116r-v, skan 0118-0119), Tenor (s. 87v-88r, skan 0260), Bassus (s. 112v, skan 0416)
!!!AIN: 1 alto 1 bass 1 tenor
!!!key: G:mix
**kern	**text	**kern	**text	**kern	**text
*part3	*part3	*part2	*part2	*part1	*part1
*staff3	*staff3	*staff2	*staff2	*staff1	*staff1
*I"Bassus	*	*I"Tenor	*	*I"Discantus	*
*I'B	*	*I'T	*	*I'A	*
*Ibass	*	*Itenor	*	*Ialto	*
*ICvox	*	*ICvox	*	*ICvox	*
*clefF4	*	*clefC3	*	*clefC3	*
*k[]	*	*k[bn]	*	*k[bn]	*
*G:mix	*	*G:mix	*	*G:mix	*
*M2/1	*	*M2/1	*	*M2/1	*
*met(C|)	*	*met(C|)	*	*met(C|)	*
=1-	=1-	=1-	=1-	=1-	=1-
*	*	*lig	*	*	*
1F	Al-	1F	Al-	1f	Al-
2C/	-le-	1G	.	2e/	-le-
*	*	*	*	*2\right	*
2E/	.	.	.	2g\	.
=2-	=2-	=2-	=2-	=2-	=2-
2D/	.	1A	.	2f/	.
2C/	.	.	.	2e/	.
*	*	*Xlig	*	*	*
*	*	*lig	*	*	*
1D	.	1A	-le-	1f	.
=3-	=3-	=3-	=3-	=3-	=3-
1AA	.	1G	.	00e	.
*	*	*Xlig	*	*	*
1E	.	1A	.	.	.
=4-	=4-	=4-	=4-	=4-	=4-
1AA	.	1.c	.	.	.
1.A	.	.	.	.	.
.	.	2B/	.	.	.
=5-	=5-	=5-	=5-	=5-	=5-
.	.	2A/	.	1e	.
*2\right	*	*	*	*	*
2G\	.	2G/	.	.	.
2F/	.	1A	-lu-	2f\	.
2E/	.	.	.	1g\	.
=6-	=6-	=6-	=6-	=6-	=6-
*	*	*custos:c	*	*	*
1D	-lu-	0G;	-ya	.	.
.	.	.	.	2f\	-lu-
*custos:G	*	*	*	*	*
*	*	*	*	*custos:e	*
1GG;;	-ya	.	.	1g;<	-ya
!LO:LB:g=original	!	!LO:LB:g=original	!	!LO:PB:g=original	!
=7||	=7||	=7||	=7||	=7||	=7||
*	*	*lig	*	*lig	*
1r	.	1c	Hec	1e	Hec
*lig	*	*	*	*	*
1G	Hec	1B	.	1d	.
*	*	*Xlig	*	*Xlig	*
=8-	=8-	=8-	=8-	=8-	=8-
*	*	*lig	*	*lig	*
1F	.	1d	.	1f	.
*Xlig	*	*	*	*	*
1A	.	1c	.	1e	.
*	*	*Xlig	*	*Xlig	*
=9-	=9-	=9-	=9-	=9-	=9-
2G\	di-	2B/	.	2g\	di-
2A\	.	2c/	.	2e\	.
2F/	.	1d	di-	2f\	.
2G\	.	.	.	2d/	.
=10-	=10-	=10-	=10-	=10-	=10-
2C/	.	0c	-es	0e	-es
1AA	-es	.	.	.	.
2AA/	quam	.	.	.	.
=11-	=11-	=11-	=11-	=11-	=11-
1AA	.	1c	qu(am)	1.e	quam
*lig	*	*lig	*	*	*
1A	fe-	1c	fe-	.	.
.	.	.	.	2f\	.
=12-	=12-	=12-	=12-	=12-	=12-
1E	.	1e	.	0g	.
*Xlig	*	*Xlig	*	*	*
1G	.	1d	.	.	.
=13-	=13-	=13-	=13-	=13-	=13-
1C	-cit	1c	-cit	1.g	fe-
2G\	do-	2B/	do-	.	.
1F\	.	1c\	.	1a\	-cit
=14-	=14-	=14-	=14-	=14-	=14-
.	.	.	.	.	.
*custos:D	*	*	*	*	*
2G\	.	2B/	.	1g	do-
!LO:LB:g=original	!	!	!	!	!
1D	.	1A	-mi-	.	.
.	.	.	.	2f\	-mi-
=15-	=15-	=15-	=15-	=15-	=15-
*	*	*custos:G	*	*	*
2.E/	.	0G	-nus	0g	-(nus)
4D/	.	.	.	.	.
2C/	.	.	.	.	.
2BB/	.	.	.	.	.
!	!	!LO:LB:g=original	!	!	!
=16-	=16-	=16-	=16-	=16-	=16-
*	*	*	*	*custos:d	*
1C	-mi-	1G	e-	1e	e-
!	!	!	!	!LO:LB:g=original	!
1GG	-nus	1G	-xul-	2d/	-xul-
.	.	.	.	1g\	.
=17-	=17-	=17-	=17-	=17-	=17-
*	*	*lig	*	*	*
2D/	e-	1A	-te-	.	.
2D/	-xul-	.	.	2f\	.
1E	-te-	1G	.	1g	.
*	*	*Xlig	*	*	*
=18-	=18-	=18-	=18-	=18-	=18-
1C	.	1.c	.	1e	.
1G	.	.	.	1d	.
.	.	2B/	.	.	.
=19-	=19-	=19-	=19-	=19-	=19-
2F\	.	2A/	.	2f\	.
4E/	.	4G/	.	1f	te-
4D/	.	4F/	.	.	.
1C	-mus	1G	.	.	.
.	.	.	.	2e\	-mus
=20-	=20-	=20-	=20-	=20-	=20-
2.c\	et	0F	-mus	0f	.
4B\	.	.	.	.	.
2.A\	le-	.	.	.	.
*custos:F	*	*	*	*	*
4G\	.	.	.	.	.
!LO:LB:g=original	!	!	!	!	!
=21-	=21-	=21-	=21-	=21-	=21-
2F/	.	1A	et	1f	et
2D/	.	.	.	.	.
*	*	*lig	*	*	*
1E	.	1G	le-	1g	le-
=22-	=22-	=22-	=22-	=22-	=22-
1D	.	1A	.	1f	-te-
*	*	*Xlig	*	*	*
2C/	.	1A	-te-	2e\	.
2D/	.	.	.	2d/	.
=23-	=23-	=23-	=23-	=23-	=23-
1AA	.	1A	-mur	1c	.
*	*	*custos:c	*	*custos:e	*
1D	.	1A	ni	1d	-mur
!	!	!LO:PB:g=original	!	!LO:LB:g=original	!
=24-	=24-	=24-	=24-	=24-	=24-
*	*	*lig	*	*lig	*
1C	-te-	1c	.	1e	ni
1F	-mur	1A	.	1f	.
*	*	*Xlig	*	*Xlig	*
=25-	=25-	=25-	=25-	=25-	=25-
2r	.	2c/	.	2e\	.
2F\	ni	1d\	.	2f\	.
1G	.	.	.	1d	.
.	.	2B/	.	.	.
=26-	=26-	=26-	=26-	=26-	=26-
2E/	.	1c	.	2e\	.
1F	.	.	.	2c/	.
.	.	2A/	.	1f	.
2D/	.	1B/	.	.	.
=27-	=27-	=27-	=27-	=27-	=27-
1E	e-	.	.	2e\	.
.	.	2G/	.	1g	.
2C/	-a	1A	e-	.	.
2D/	.	.	.	2f\	e-
=28-	=28-	=28-	=28-	=28-	=28-
0GGl	.	0Gl	-a	0g;;	-a
==	==	==	==	==	==
*-	*-	*-	*-	*-	*-
!!!system-decoration: [(s1,s2,s3)]
!!!RDF**kern: < = below
!!!RDF**kern: l = terminal long
!!!ENC: Filip Voros
!!!END: 2022-01-16
!!!ENC: Marta Lawrence
!!!END: 2022-01-25
!!!YEC: Copyright 2022 Narodowy Instytut Fryderyka Chopina (https://polishscores.org)
!!!YEM: License CC-BY-4.0 (https://creativecommons.org/licenses/by/4.0)
